public/assets/img/program5.svg

<svg width="71" height="71" viewBox="0 0 71 71" fill="none" xmlns="http://www.w3.org/2000/svg">
<path d="M54.9677 29.7742C52.1735 29.7742 49.5053 30.483 47.1669 31.784L45.1961 28.7699C49.0381 25.8383 51.5323 21.2267 51.5323 16.0323C51.5323 7.19161 44.3406 0 35.5 0C26.6594 0 19.4677 7.19161 19.4677 16.0323C19.4677 21.158 21.8577 25.8142 25.7902 28.7916L23.8285 31.792C21.4947 30.4956 18.8276 29.7742 16.0323 29.7742C7.19161 29.7742 0 36.9658 0 45.8064C0 54.6471 7.19161 61.8387 16.0323 61.8387C19.0349 61.8387 21.9115 61.0188 24.4332 59.4614C25.0493 60.5367 25.8738 61.4894 26.8792 62.243L28.629 63.5564V71H49.2419V60.7783C51.0616 61.4723 53.0095 61.8387 54.9677 61.8387C63.8084 61.8387 71 54.6471 71 45.8064C71 36.9658 63.8084 29.7742 54.9677 29.7742ZM68.7097 45.8064C68.7097 48.4976 67.9207 51.002 66.5785 53.124C65.1001 50.0493 62.4525 47.7005 59.285 46.5645C60.8413 45.3037 61.8387 43.3799 61.8387 41.2258C61.8387 37.4365 58.7571 34.3548 54.9677 34.3548C51.6216 34.3548 48.8297 36.7608 48.2227 39.9329C47.6021 39.3168 46.7478 38.9355 45.8064 38.9355C45.3541 38.9355 44.9247 39.0282 44.5285 39.1874C44.391 38.679 44.1414 38.222 43.8047 37.8361C46.3859 34.2163 50.4776 32.0645 54.9677 32.0645C62.5453 32.0645 68.7097 38.2289 68.7097 45.8064ZM49.2419 45.0163C49.629 45.5992 50.1019 46.1202 50.6448 46.56C50.1672 46.7306 49.6977 46.9241 49.2419 47.1509V45.0163ZM54.9677 45.8064C52.4415 45.8064 50.3871 43.752 50.3871 41.2258H59.5484C59.5484 43.752 57.494 45.8064 54.9677 45.8064ZM51.0238 38.9355C51.8185 37.5727 53.2798 36.6452 54.9677 36.6452C56.6557 36.6452 58.1169 37.5727 58.9117 38.9355H51.0238ZM54.9677 48.0968C55.7407 48.0968 56.4977 48.1895 57.2317 48.3521C57.1035 49.4939 56.1438 50.3871 54.9677 50.3871C53.7985 50.3871 52.8423 49.503 52.7049 48.3693C53.4447 48.2079 54.1959 48.0968 54.9677 48.0968ZM45.2545 33.0425C43.9284 34.0548 42.7534 35.2824 41.7755 36.7013C41.5957 36.6715 41.4136 36.6452 41.2258 36.6452C40.7735 36.6452 40.344 36.7379 39.9478 36.8971C39.5527 35.437 38.2289 34.3548 36.6452 34.3548C36.2421 34.3548 35.8596 34.4373 35.5 34.5655V32.0645C38.3263 32.0645 40.9796 31.3236 43.2871 30.0341L45.2545 33.0425ZM35.5 29.7742C35.4279 29.7742 35.358 29.7673 35.287 29.7662C34.8095 28.4401 33.5521 27.4839 32.0645 27.4839C31.1289 27.4839 30.2815 27.8618 29.662 28.4699C28.0656 27.7221 26.6605 26.6994 25.4959 25.4672C26.4452 22.7108 28.4813 20.519 31.0373 19.3235C31.4965 21.3687 33.3196 22.9032 35.5 22.9032C37.6804 22.9032 39.5035 21.3687 39.9627 19.3246C42.5084 20.5156 44.5399 22.6937 45.4938 25.4352C42.9859 28.0988 39.4382 29.7742 35.5 29.7742ZM30.9194 11.4516H40.0806C40.0806 13.9778 38.0262 16.0323 35.5 16.0323C32.9738 16.0323 30.9194 13.9778 30.9194 11.4516ZM31.5561 9.16129C32.3508 7.79855 33.812 6.87097 35.5 6.87097C37.188 6.87097 38.6492 7.79855 39.4439 9.16129H31.5561ZM35.5 18.3226C36.273 18.3226 37.0299 18.4153 37.764 18.578C37.6357 19.7197 36.6761 20.6129 35.5 20.6129C34.3239 20.6129 33.3643 19.7197 33.236 18.578C33.9701 18.4153 34.727 18.3226 35.5 18.3226ZM35.5 2.29032C43.0775 2.29032 49.2419 8.45473 49.2419 16.0323C49.2419 18.7234 48.4529 21.2279 47.1108 23.3498C45.6324 20.2751 42.9848 17.9264 39.8173 16.7904C41.3735 15.5295 42.371 13.6057 42.371 11.4516C42.371 7.66227 39.2893 4.58065 35.5 4.58065C31.7107 4.58065 28.629 7.66227 28.629 11.4516C28.629 13.6057 29.6265 15.5295 31.1827 16.7892C28.0061 17.9286 25.3516 20.2865 23.8755 23.3739C22.523 21.2301 21.7581 18.7074 21.7581 16.0323C21.7581 8.45473 27.9225 2.29032 35.5 2.29032ZM27.7083 30.0399C28.0221 30.2128 28.3405 30.3788 28.668 30.5334C28.6531 30.6617 28.629 30.7877 28.629 30.9194V35.8928C27.785 34.8186 26.8174 33.8613 25.7444 33.0448L27.7083 30.0399ZM16.0323 32.0645C21.5233 32.0645 26.4406 35.2996 28.629 40.32V41.6633L25.0012 43.4772C23.4552 44.2502 22.3696 45.6301 21.9527 47.2494C21.4363 46.9814 20.9015 46.7546 20.3564 46.56C21.9081 45.298 22.9032 43.3776 22.9032 41.2258C22.9032 37.4365 19.8216 34.3548 16.0323 34.3548C12.2429 34.3548 9.16129 37.4365 9.16129 41.2258C9.16129 43.3799 10.1587 45.3037 11.715 46.5634C8.54748 47.6994 5.89873 50.0481 4.42147 53.1229C3.07934 51.002 2.29032 48.4976 2.29032 45.8064C2.29032 38.2289 8.45473 32.0645 16.0323 32.0645ZM11.4516 41.2258H20.6129C20.6129 43.752 18.5585 45.8064 16.0323 45.8064C13.506 45.8064 11.4516 43.752 11.4516 41.2258ZM12.0883 38.9355C12.8831 37.5727 14.3443 36.6452 16.0323 36.6452C17.7202 36.6452 19.1815 37.5727 19.9762 38.9355H12.0883ZM16.0323 48.0968C16.803 48.0968 17.5599 48.1849 18.2974 48.3453C18.1714 49.4904 17.2106 50.3871 16.0323 50.3871C14.8562 50.3871 13.8965 49.4939 13.7683 48.3521C14.5023 48.1895 15.2593 48.0968 16.0323 48.0968ZM16.0323 59.5484C12.094 59.5484 8.54634 57.873 6.03843 55.2094C6.99235 52.4679 9.02387 50.2898 11.5696 49.0988C12.0288 51.1429 13.8519 52.6774 16.0323 52.6774C18.2161 52.6774 20.0415 51.1395 20.4972 49.0908C20.9725 49.3129 21.4328 49.5717 21.876 49.866C21.8852 49.9096 21.8886 49.9531 21.8978 49.9966L23.4323 56.9031C23.4632 57.0393 23.5044 57.1722 23.5411 57.3073C21.308 58.7708 18.7314 59.5484 16.0323 59.5484ZM46.9516 68.7097H30.9194V63.6927C35.8859 61.2673 41.9839 61.2673 46.9516 63.6927V68.7097ZM46.9516 61.1768C41.5522 58.8945 35.1633 59.0777 29.9036 61.6498L28.2534 60.4118C26.9411 59.4281 26.0238 58.0047 25.6688 56.4061L24.1343 49.4985C24.077 49.2454 24.0484 48.9854 24.0484 48.7243C24.0484 47.3616 24.8053 46.1351 26.0249 45.5259L28.629 44.2238V46.6814C28.629 47.8242 27.9935 48.8526 26.972 49.3633L27.9969 51.412C29.7994 50.5085 30.9194 48.6957 30.9194 46.6814V30.9194C30.9194 30.2872 31.4335 29.7742 32.0645 29.7742C32.6955 29.7742 33.2097 30.2872 33.2097 30.9194V49.2419H35.5V37.7903C35.5 37.1582 36.0142 36.6452 36.6452 36.6452C37.2761 36.6452 37.7903 37.1582 37.7903 37.7903V49.2419H40.0806V40.0806C40.0806 39.4485 40.5948 38.9355 41.2258 38.9355C41.8568 38.9355 42.371 39.4485 42.371 40.0806V49.2419H44.6613V42.371C44.6613 41.7388 45.1755 41.2258 45.8064 41.2258C46.4374 41.2258 46.9516 41.7388 46.9516 42.371V61.1768ZM54.9677 59.5484C52.9878 59.5484 51.0295 59.0949 49.2419 58.275V49.8122C49.6508 49.5477 50.0699 49.3072 50.5062 49.1034C50.9677 51.1452 52.7885 52.6774 54.9677 52.6774C57.1481 52.6774 58.9712 51.1429 59.4304 49.0988C61.9761 50.2898 64.0076 52.4679 64.9616 55.2094C62.4537 57.873 58.9059 59.5484 54.9677 59.5484Z" fill="#90A1AE"/>
</svg>

<svg width="71" height="71" fill="none" xmlns="http://www.w3.org/2000/svg"><path d="M54.968 29.774c-2.795 0-5.463.709-7.801 2.01l-1.97-3.014c3.841-2.932 6.335-7.543 6.335-12.738C51.532 7.192 44.341 0 35.5 0c-8.84 0-16.032 7.192-16.032 16.032 0 5.126 2.39 9.782 6.322 12.76l-1.962 3a16.026 16.026 0 0 0-7.796-2.018C7.192 29.774 0 36.966 0 45.806 0 54.647 7.192 61.84 16.032 61.84c3.003 0 5.88-.82 8.401-2.378a9.155 9.155 0 0 0 2.446 2.782l1.75 1.313V71h20.613V60.778c1.82.694 3.768 1.06 5.726 1.06 8.84 0 16.032-7.19 16.032-16.032 0-8.84-7.192-16.032-16.032-16.032ZM68.71 45.806c0 2.692-.79 5.196-2.131 7.318a12.957 12.957 0 0 0-7.294-6.56 6.858 6.858 0 0 0 2.554-5.338 6.878 6.878 0 0 0-6.871-6.871c-3.346 0-6.138 2.406-6.745 5.578a3.42 3.42 0 0 0-2.417-.998c-.452 0-.881.093-1.277.252a3.4 3.4 0 0 0-.724-1.35c2.58-3.62 6.673-5.773 11.163-5.773 7.577 0 13.742 6.165 13.742 13.742Zm-19.468-.79c.387.583.86 1.104 1.403 1.544-.478.17-.947.364-1.403.59v-2.134Zm5.726.79a4.585 4.585 0 0 1-4.58-4.58h9.16a4.585 4.585 0 0 1-4.58 4.58Zm-3.944-6.87c.794-1.363 2.256-2.29 3.944-2.29 1.688 0 3.149.927 3.944 2.29h-7.888Zm3.944 9.16c.773 0 1.53.094 2.264.256a2.284 2.284 0 0 1-2.264 2.035 2.286 2.286 0 0 1-2.263-2.018c.74-.161 1.49-.272 2.263-.272Zm-9.714-15.053a16.055 16.055 0 0 0-3.478 3.658 3.347 3.347 0 0 0-.55-.056c-.453 0-.882.093-1.278.252a3.43 3.43 0 0 0-3.303-2.542c-.403 0-.785.082-1.145.21v-2.5c2.826 0 5.48-.741 7.787-2.03l1.968 3.007ZM35.5 29.773c-.072 0-.142-.007-.213-.008a3.432 3.432 0 0 0-3.222-2.282 3.42 3.42 0 0 0-2.403.986 13.74 13.74 0 0 1-4.166-3.003 10.612 10.612 0 0 1 5.541-6.143 4.583 4.583 0 0 0 4.463 3.58 4.584 4.584 0 0 0 4.463-3.58 10.613 10.613 0 0 1 5.53 6.111c-2.507 2.664-6.055 4.34-9.993 4.34Zm-4.58-18.322h9.16a4.585 4.585 0 0 1-4.58 4.58 4.585 4.585 0 0 1-4.58-4.58Zm.636-2.29c.795-1.363 2.256-2.291 3.944-2.291 1.688 0 3.15.928 3.944 2.29h-7.888Zm3.944 9.16c.773 0 1.53.093 2.264.256a2.284 2.284 0 0 1-2.264 2.035 2.284 2.284 0 0 1-2.264-2.035 10.452 10.452 0 0 1 2.264-.255Zm0-16.032c7.578 0 13.742 6.165 13.742 13.742 0 2.691-.79 5.196-2.131 7.318a12.957 12.957 0 0 0-7.294-6.56 6.859 6.859 0 0 0 2.554-5.338c0-3.79-3.082-6.871-6.871-6.871a6.878 6.878 0 0 0-6.871 6.87c0 2.155.997 4.079 2.554 5.338a12.959 12.959 0 0 0-7.308 6.585 13.72 13.72 0 0 1-2.117-7.342c0-7.577 6.165-13.742 13.742-13.742Zm-7.792 27.75c.314.173.633.339.96.493-.015.129-.039.255-.039.386v4.974a15.974 15.974 0 0 0-2.885-2.848l1.964-3.005Zm-11.676 2.025A13.709 13.709 0 0 1 28.63 40.32v1.343l-3.628 1.814a5.825 5.825 0 0 0-3.048 3.772 12.81 12.81 0 0 0-1.597-.689 6.862 6.862 0 0 0 2.547-5.334 6.878 6.878 0 0 0-6.87-6.871 6.878 6.878 0 0 0-6.872 6.87c0 2.155.998 4.079 2.554 5.338a12.953 12.953 0 0 0-7.294 6.56 13.636 13.636 0 0 1-2.13-7.317c0-7.577 6.164-13.741 13.741-13.741Zm-4.58 9.16h9.16a4.585 4.585 0 0 1-4.58 4.581 4.585 4.585 0 0 1-4.58-4.58Zm.636-2.29c.795-1.362 2.256-2.29 3.944-2.29 1.688 0 3.15.928 3.944 2.29h-7.888Zm3.944 9.162c.771 0 1.528.088 2.265.248a2.285 2.285 0 0 1-2.265 2.042 2.284 2.284 0 0 1-2.264-2.035 10.457 10.457 0 0 1 2.264-.255Zm0 11.451c-3.938 0-7.486-1.675-9.994-4.339a10.613 10.613 0 0 1 5.532-6.11 4.584 4.584 0 0 0 4.462 3.578 4.583 4.583 0 0 0 4.465-3.586c.476.222.936.48 1.379.775.01.044.013.087.022.13l1.534 6.907c.031.136.072.27.11.404a13.617 13.617 0 0 1-7.51 2.241Zm30.92 9.162H30.919v-5.017c4.967-2.426 11.065-2.426 16.033 0v5.017Zm0-7.533c-5.4-2.282-11.789-2.1-17.048.473l-1.65-1.238a6.871 6.871 0 0 1-2.585-4.006L24.134 49.5a3.556 3.556 0 0 1 1.89-3.973l2.605-1.302v2.457a2.983 2.983 0 0 1-1.657 2.682l1.025 2.049a5.265 5.265 0 0 0 2.922-4.73V30.918a1.146 1.146 0 0 1 2.29 0v18.323H35.5V37.79a1.146 1.146 0 0 1 2.29 0v11.452h2.29V40.08a1.146 1.146 0 0 1 2.291 0v9.16h2.29v-6.87a1.146 1.146 0 0 1 2.29 0v18.806Zm8.016-1.629c-1.98 0-3.939-.453-5.726-1.273v-8.463c.409-.264.828-.505 1.264-.709.462 2.042 2.282 3.574 4.462 3.574A4.584 4.584 0 0 0 59.43 49.1a10.613 10.613 0 0 1 5.532 6.11c-2.508 2.664-6.056 4.34-9.994 4.34Z" fill="#90A1AE"/></svg>
